src/icons/images.svg

<?xml version="1.0" encoding="UTF-8"?>
<svg width="512px" height="512px" viewBox="0 0 512 512" version="1.1" xmlns="http://www.w3.org/2000/svg" xmlns:xlink="http://www.w3.org/1999/xlink">
    <!-- Generator: Sketch 62 (91390) - https://sketch.com -->
    <title>images</title>
    <desc>Created with Sketch.</desc>
    <g id="images" stroke="none" stroke-width="1" fill="none" fill-rule="evenodd">
        <path d="M409,161.669457 L346.4,158.569457 L342.8,117.769457 C342.1,109.169457 334.4,103.169457 325.4,103.869457 L100.8,122.369457 C91.9,123.069457 85.4,130.369457 86,138.869457 L102,317.769457 C102.7,326.369457 110.5,332.369457 119.4,331.669457 L130.8,330.669457 L129,365.369457 C128.6,374.969457 136,382.669457 146,383.269457 L396.6,395.169457 C406.6,395.569457 414.9,388.669457 415.4,379.169457 L425.9,179.369457 C426.4,169.869457 418.9,162.169457 409,161.669457 L409,161.669457 Z M139.6,165.769457 L134.2,268.069457 L121,286.769457 L108.8,151.669457 L108.8,150.969457 C109.2,147.169457 112.1,144.169457 116,143.869457 L314.1,127.569457 C318,127.269457 321.4,129.769457 322.1,133.569457 C322.1,133.669457 322.3,133.669457 322.3,133.869457 C322.3,133.969457 322.5,133.969457 322.5,134.169457 L324.5,157.569457 L158.4,149.569457 C148.4,149.269457 140.1,156.269457 139.6,165.769457 Z M393.2,345.569457 L357.7,303.569457 L336.9,278.669457 C335.1,276.469457 332.1,274.669457 328.8,274.569457 C325.5,274.469457 323.1,275.769457 320.4,277.669457 L308,286.669457 C305.3,288.269457 303.3,289.369457 300.5,289.269457 C297.7,289.169457 295.3,288.069457 293.6,286.369457 C293,285.769457 291.9,284.669457 290.9,283.769457 L258.4,246.669457 C256.1,243.669457 252.1,241.769457 247.9,241.569457 C243.5,241.369457 239.4,243.169457 236.6,245.869457 L159.9,328.469457 L154.7,334.069457 L154.9,328.869457 L160.1,230.969457 L162.7,183.269457 L162.7,182.569457 C163.8,178.469457 167.4,175.569457 171.7,175.769457 L326.6,183.169457 L348.4,184.269457 L392.6,186.369457 C397,186.569457 400.5,189.969457 400.5,194.169457 C400.5,194.269457 400.7,194.369457 400.7,194.569457 C400.7,194.669457 400.9,194.769457 400.9,194.969457 L393.2,345.569457 Z" id="Shape" fill="#000000" fill-rule="nonzero"></path>
        <path d="M256,181.6 C269.9,181.6 281.1,170.3 281.1,156.5 C281.1,142.6 269.9,131.4 256,131.4 C242.1,131.4 230.9,142.6 230.9,156.5 C230.9,170.4 242.1,181.6 256,181.6 Z" id="Path" fill="#000000" fill-rule="nonzero"></path>
    </g>
</svg>

<svg xmlns="http://www.w3.org/2000/svg" width="512" height="512" viewBox="0 0 512 512">
    <path d="M409 161.67l-62.6-3.1-3.6-40.8c-.7-8.6-8.4-14.6-17.4-13.9l-224.6 18.5c-8.9.7-15.4 8-14.8 16.5l16 178.9c.7 8.6 8.5 14.6 17.4 13.9l11.4-1-1.8 34.7c-.4 9.6 7 17.3 17 17.9l250.6 11.9c10 .4 18.3-6.5 18.8-16l10.5-199.8c.5-9.5-7-17.2-16.9-17.7zm-269.4 4.1l-5.4 102.3-13.2 18.7-12.2-135.1v-.7c.4-3.8 3.3-6.8 7.2-7.1l198.1-16.3c3.9-.3 7.3 2.2 8 6 0 .1.2.1.2.3 0 .1.2.1.2.3l2 23.4-166.1-8c-10-.3-18.3 6.7-18.8 16.2zm253.6 179.8l-35.5-42-20.8-24.9c-1.8-2.2-4.8-4-8.1-4.1-3.3-.1-5.7 1.2-8.4 3.1l-12.4 9c-2.7 1.6-4.7 2.7-7.5 2.6-2.8-.1-5.2-1.2-6.9-2.9-.6-.6-1.7-1.7-2.7-2.6l-32.5-37.1c-2.3-3-6.3-4.9-10.5-5.1-4.4-.2-8.5 1.6-11.3 4.3l-76.7 82.6-5.2 5.6.2-5.2 5.2-97.9 2.6-47.7v-.7c1.1-4.1 4.7-7 9-6.8l154.9 7.4 21.8 1.1 44.2 2.1c4.4.2 7.9 3.6 7.9 7.8 0 .1.2.2.2.4 0 .1.2.2.2.4l-7.7 150.6z"/>
    <path d="M256 181.6c13.9 0 25.1-11.3 25.1-25.1 0-13.9-11.2-25.1-25.1-25.1-13.9 0-25.1 11.2-25.1 25.1 0 13.9 11.2 25.1 25.1 25.1z"/>
</svg>
